app/public/dtpr-icons/commerce.svg

<svg width="36" height="36" viewBox="0 0 36 36" fill="none" xmlns="http://www.w3.org/2000/svg">
<path d="M31.8564 8.8453L19 1.42265C18.3812 1.06538 17.6188 1.06538 17 1.42265L4.14359 8.8453C3.52479 9.20257 3.14359 9.86282 3.14359 10.5774V25.4226C3.14359 26.1372 3.52479 26.7974 4.14359 27.1547L17 34.5774C17.6188 34.9346 18.3812 34.9346 19 34.5774L31.8564 27.1547C32.4752 26.7974 32.8564 26.1372 32.8564 25.4226V10.5774C32.8564 9.86282 32.4752 9.20256 31.8564 8.8453Z" fill="black" stroke="black" stroke-width="2"/>
<path d="M13.8333 23C12.9167 23 12.175 23.75 12.175 24.6667C12.175 25.5833 12.9167 26.3333 13.8333 26.3333C14.75 26.3333 15.5 25.5833 15.5 24.6667C15.5 23.75 14.75 23 13.8333 23ZM8.83334 9.66666V11.3333H10.5L13.5 17.6583L12.375 19.7C12.2417 19.9333 12.1667 20.2083 12.1667 20.5C12.1667 21.4167 12.9167 22.1667 13.8333 22.1667H23.8333V20.5H14.1833C14.0667 20.5 13.975 20.4083 13.975 20.2917L14 20.1917L14.75 18.8333H20.9583C21.5833 18.8333 22.1333 18.4917 22.4167 17.975L25.4 12.5667C25.4667 12.45 25.5 12.3083 25.5 12.1667C25.5 11.7083 25.125 11.3333 24.6667 11.3333H12.3417L11.5583 9.66666H8.83334ZM22.1667 23C21.25 23 20.5083 23.75 20.5083 24.6667C20.5083 25.5833 21.25 26.3333 22.1667 26.3333C23.0833 26.3333 23.8333 25.5833 23.8333 24.6667C23.8333 23.75 23.0833 23 22.1667 23Z" fill="white"/>
</svg>

<svg xmlns="http://www.w3.org/2000/svg" width="36" height="36" fill="none"><path fill="#000" stroke="#000" stroke-width="2" d="M31.856 8.845 19 1.423a2 2 0 0 0-2 0L4.144 8.845a2 2 0 0 0-1 1.732v14.846a2 2 0 0 0 1 1.732L17 34.577a2 2 0 0 0 2 0l12.856-7.422a2 2 0 0 0 1-1.732V10.577a2 2 0 0 0-1-1.732Z"/><path fill="#fff" d="M13.833 23c-.916 0-1.658.75-1.658 1.667 0 .916.742 1.666 1.658 1.666.917 0 1.667-.75 1.667-1.666 0-.917-.75-1.667-1.667-1.667m-5-13.333v1.666H10.5l3 6.325-1.125 2.042a1.6 1.6 0 0 0-.208.8c0 .917.75 1.667 1.666 1.667h10V20.5h-9.65a.206.206 0 0 1-.208-.208l.025-.1.75-1.359h6.208c.625 0 1.175-.341 1.459-.858l2.983-5.408a.836.836 0 0 0-.733-1.233H12.342l-.784-1.667zM22.167 23c-.917 0-1.659.75-1.659 1.667 0 .916.742 1.666 1.659 1.666.916 0 1.666-.75 1.666-1.666 0-.917-.75-1.667-1.666-1.667"/></svg>
